!!!OTL-incipit: Warum weinst du, schoene Gaertnersfrau
!!!ARE: Europa, Mitteleuropa, Deutschland, Anhalt, Rauschenbach, Loedderitz
!!!SCT: D1013
!!!TXL: @@DE
!!!YEM: Copyright 1995, estate of Helmut Schaffrath.
**kern	**text
*ICvox	*
*M4/4	*
*met(c)	*
*k[b-]	*
*F:	*
!LO:TX:a:t=Moderato	!
{8cL	"Warum
8cJ	.
=1	=1
4f	weinst
4f	du,
4f	schöne
4f	.
=2	=2
4f	Gärtnersfrau?
4a	.
2c}	.
=3	=3
{4c	Weinst
4e	du
4.g	um
8f	das
=4	=4
4e	Veilchen
4g	.
4b-/	dunkelblau?
4a	.
=5	=5
2f	.
4r}	.
{8cL	Weinst
8cJ	du
=6	=6
4f	um
4a	die
4a	Rose,
4cc	.
=7	=7
4b-/	die
4a	dein
4g	Finger
4f	.
=8	=8
2d}	bricht?"
{4f	"Ueber
4d	.
=9	=9
4c	alle
4f	.
4e	diees
4d	.
=10	=10
4e	Blumen
4f	.
4a	wein'
4g	ich
=11	=11
2f	nicht."
4r}	.
==	==
!!!AGN: ???
!! DVA-Signatur A 59 974
!!!ONB: ESAC (Essen Associative Code) Database: DVA
!!!AMT: simple quadruple
!!!AIN: vox
!!!EED: Helmut Schaffrath
!!!EEV: 1.0
!!!YOR: https://freidok.uni-freiburg.de/data/150373
!!!EFL: A 059 501 - 060 000 Schleswig-Holstein u. Anhalt. (p. 305)
!!!ENC: Anna Maria Matuszewska
!!!EEV: 2025/04/02
*-	*-
